X:95
T:Will the Circle be Unbroken
C:Traditional
S:https://JamBuddy.live
R:Ballad
M:4/4
L:1/8
K:G
|:DE "G"G2 G4- | G4 B2A2 | G4 B4- | B4 B2A2 |"C"G4 A4 | G4 E4 | "G"D8 |
 |  DE "G"G2 G4- | G4 B2d2 | d4 B4- | B4 G2A2 |\
B4 B4 | "D"A4 B2A2 | "G"G8 :|]

